!!!OTL: Die Mordeltern Es waren einst zwei Kaufmannssoehn',
!!!ARE: Europa, Mitteleuropa, Deutschland (BRD), Nordbayern, Franken, Eibelstadt
!!!YOR: 4, S. 261
!!    1855 gedruckt in Leipzig
!!!SCT: Q0085A
!!!YEM: Copyright 1995, estate of Helmut Schaffrath.
**kern
*ICvox
*Ivox
*M3/4
*k[b-]
*F:
{8c
=1
8c
8f
4f
4f
=2
8e
8f
4g
8r}
{16c
16c
=3
8c
8g
4g
4g
=4
8f
8g
4a
8r}
{16a
16cc
=5
8cc
8a
8a
16g
16a
8b-
8g
=6
4g
4a
8r}
{16a
16cc
=7
8cc
8a
8a
16g
16a
8b-
8g
=8
4g
4f
8r}
==
!!!AGN: Ballade, Habgier, Mord, Reue, Selbstmord
!! Zweistimmig notiert, Oberstimme kodiert.
!!!ONB: ESAC (Essen Associative Code) Database: BALLADE
!!!AMT: simple triple
!!!AIN: vox
!!!EED: Helmut Schaffrath
!!!EEV: 1.0
*-
